modules/themify-icons/icons/layout-media-center.svg

<?xml version="1.0" encoding="utf-8"?>
<!-- Generated by IcoMoon.io -->
<!DOCTYPE svg PUBLIC "-//W3C//DTD SVG 1.1//EN" "http://www.w3.org/Graphics/SVG/1.1/DTD/svg11.dtd">
<svg version="1.1" xmlns="http://www.w3.org/2000/svg" xmlns:xlink="http://www.w3.org/1999/xlink" width="17" height="17" viewBox="0 0 17 17">
<g>
</g>
	<path d="M1 4v6h15v-6h-15zM15 9h-13v-4h13v4zM14 11v1h-11v-1h11zM2 13h13v1h-13v-1z" fill="#000000" />
</svg>

<svg xmlns="http://www.w3.org/2000/svg" width="17" height="17" viewBox="0 0 17 17"><path d="M1 4v6h15V4H1zm14 5H2V5h13v4zm-1 2v1H3v-1h11zM2 13h13v1H2v-1z"/></svg>
